; generated by Slic3r 1.1.6 on 2014-12-15 at 21:20:31

; perimeters extrusion width = 0.50mm
; infill extrusion width = 0.50mm
; solid infill extrusion width = 0.50mm
; top infill extrusion width = 0.50mm

G21 ; set units to millimeters
M107 ; disable fan
M190 S57 ; wait for bed temperature to be reached
M104 S200 ; set temperature

M109 S200 ; wait for temperature to be reached
G90 ; use absolute coordinates
M83 ; use relative distances for extrusion
G1 F1800.000 E-4.00000 ; retract
G1 Z0.240 F6000.000 ; move to next layer (0)
G1 X79.279 Y54.796 F6000.000 ; move to first skirt point
G1 E4.00000 F1800.000 ; compensate retraction
G1 X79.738 Y54.185 E0.04566 F600.000 ; skirt
G1 X80.105 Y53.744 E0.03428 ; skirt
G1 X81.035 Y52.782 E0.07992 ; skirt
G1 X81.609 Y52.277 E0.04568 ; skirt
G1 X82.059 Y51.921 E0.03428 ; skirt
G1 X83.165 Y51.170 E0.07992 ; skirt
G1 X84.344 Y50.537 E0.07992 ; skirt
G1 X85.581 Y50.028 E0.07992 ; skirt
G1 X86.309 Y49.795 E0.04567 ; skirt
G1 X86.864 Y49.649 E0.03429 ; skirt
G1 X87.613 Y49.492 E0.04573 ; skirt
G1 X88.179 Y49.404 E0.03422 ; skirt
G1 X88.940 Y49.325 E0.04570 ; skirt
G1 X89.898 Y49.285 E0.05732 ; skirt
G1 X140.418 Y49.297 E3.01846 ; skirt
G1 X140.849 Y49.324 E0.02584 ; skirt
G1 X142.177 Y49.491 E0.07993 ; skirt
G1 X143.480 Y49.793 E0.07993 ; skirt
G1 X144.745 Y50.227 E0.07992 ; skirt
G1 X145.447 Y50.534 E0.04575 ; skirt
G1 X145.959 Y50.790 E0.03420 ; skirt
G1 X146.625 Y51.166 E0.04570 ; skirt
G1 X147.108 Y51.474 E0.03425 ; skirt
G1 X148.182 Y52.272 E0.07993 ; skirt
G1 X149.167 Y53.177 E0.07992 ; skirt
G1 X150.054 Y54.178 E0.07992 ; skirt
G1 X150.833 Y55.266 E0.07993 ; skirt
G1 X151.227 Y55.921 E0.04569 ; skirt
G1 X151.497 Y56.427 E0.03426 ; skirt
G1 X151.821 Y57.119 E0.04564 ; skirt
G1 X152.037 Y57.651 E0.03431 ; skirt
G1 X152.289 Y58.373 E0.04566 ; skirt
G1 X152.449 Y58.924 E0.03428 ; skirt
G1 X152.728 Y60.232 E0.07992 ; skirt
G1 X152.826 Y60.991 E0.04572 ; skirt
G1 X152.871 Y61.568 E0.03461 ; skirt
G1 X152.892 Y62.546 E0.05845 ; skirt
G1 X152.876 Y62.900 E0.02113 ; skirt
G1 X152.817 Y63.662 E0.04571 ; skirt
G1 X152.744 Y64.231 E0.03424 ; skirt
G1 X152.607 Y64.983 E0.04570 ; skirt
G1 X152.476 Y65.541 E0.03425 ; skirt
G1 X152.262 Y66.276 E0.04572 ; skirt
G1 X152.094 Y66.766 E0.03094 ; skirt
G1 X122.177 Y142.490 E4.86469 ; skirt
G1 X121.884 Y143.172 E0.04433 ; skirt
G1 X121.632 Y143.688 E0.03433 ; skirt
G1 X120.969 Y144.825 E0.07864 ; skirt
G1 X120.194 Y145.889 E0.07864 ; skirt
G1 X119.711 Y146.452 E0.04432 ; skirt
G1 X119.315 Y146.869 E0.03434 ; skirt
G1 X118.778 Y147.380 E0.04434 ; skirt
G1 X118.342 Y147.755 E0.03432 ; skirt
G1 X117.756 Y148.209 E0.04431 ; skirt
G1 X117.284 Y148.538 E0.03435 ; skirt
G1 X116.153 Y149.211 E0.07864 ; skirt
G1 X114.959 Y149.765 E0.07863 ; skirt
G1 X113.715 Y150.195 E0.07864 ; skirt
G1 X112.997 Y150.381 E0.04435 ; skirt
G1 X112.434 Y150.498 E0.03431 ; skirt
G1 X111.701 Y150.610 E0.04434 ; skirt
G1 X111.129 Y150.669 E0.03432 ; skirt
G1 X110.092 Y150.715 E0.06203 ; skirt
G1 X59.814 Y150.708 E3.00404 ; skirt
G1 X58.501 Y150.613 E0.07864 ; skirt
G1 X57.205 Y150.386 E0.07864 ; skirt
G1 X55.938 Y150.029 E0.07864 ; skirt
G1 X55.241 Y149.771 E0.04439 ; skirt
G1 X54.714 Y149.545 E0.03427 ; skirt
G1 X54.047 Y149.218 E0.04435 ; skirt
G1 X53.545 Y148.940 E0.03432 ; skirt
G1 X52.914 Y148.547 E0.04437 ; skirt
G1 X52.443 Y148.220 E0.03429 ; skirt
G1 X51.856 Y147.766 E0.04432 ; skirt
G1 X51.420 Y147.393 E0.03434 ; skirt
G1 X50.485 Y146.466 E0.07864 ; skirt
G1 X49.650 Y145.449 E0.07864 ; skirt
G1 X49.226 Y144.840 E0.04431 ; skirt
G1 X48.921 Y144.353 E0.03434 ; skirt
G1 X48.561 Y143.704 E0.04433 ; skirt
G1 X48.307 Y143.188 E0.03434 ; skirt
G1 X47.814 Y141.968 E0.07863 ; skirt
G1 X47.592 Y141.260 E0.04437 ; skirt
G1 X47.447 Y140.704 E0.03429 ; skirt
G1 X47.210 Y139.409 E0.07864 ; skirt
G1 X47.105 Y138.098 E0.07864 ; skirt
G1 X47.133 Y136.782 E0.07863 ; skirt
G1 X47.208 Y136.043 E0.04437 ; skirt
G1 X47.294 Y135.475 E0.03429 ; skirt
G1 X47.444 Y134.749 E0.04432 ; skirt
G1 X47.587 Y134.192 E0.03434 ; skirt
G1 X47.947 Y133.093 E0.06911 ; skirt
G1 X77.972 Y57.127 E4.88052 ; skirt
G1 X78.565 Y55.928 E0.07992 ; skirt
G1 X79.239 Y54.859 E0.07545 ; skirt
G1 X79.878 Y55.245 F6000.000 ; move to first skirt point
G1 X80.336 Y54.634 E0.04566 F600.000 ; skirt
G1 X80.654 Y54.252 E0.02968 ; skirt
G1 X81.529 Y53.344 E0.07532 ; skirt
G1 X82.103 Y52.840 E0.04568 ; skirt
G1 X82.492 Y52.531 E0.02968 ; skirt
G1 X83.534 Y51.821 E0.07532 ; skirt
G1 X84.643 Y51.223 E0.07532 ; skirt
G1 X85.808 Y50.741 E0.07532 ; skirt
G1 X86.536 Y50.508 E0.04566 ; skirt
G1 X87.017 Y50.381 E0.02969 ; skirt
G1 X87.766 Y50.225 E0.04572 ; skirt
G1 X88.256 Y50.148 E0.02963 ; skirt
G1 X89.016 Y50.070 E0.04569 ; skirt
G1 X89.898 Y50.034 E0.05272 ; skirt
G1 X140.398 Y50.045 E3.01730 ; skirt
G1 X140.772 Y50.069 E0.02239 ; skirt
G1 X142.024 Y50.224 E0.07532 ; skirt
G1 X143.252 Y50.506 E0.07533 ; skirt
G1 X144.445 Y50.913 E0.07532 ; skirt
G1 X145.147 Y51.220 E0.04573 ; skirt
G1 X145.590 Y51.441 E0.02962 ; skirt
G1 X146.256 Y51.818 E0.04569 ; skirt
G1 X146.675 Y52.084 E0.02966 ; skirt
G1 X147.687 Y52.835 E0.07532 ; skirt
G1 X148.618 Y53.686 E0.07532 ; skirt
G1 X149.455 Y54.628 E0.07532 ; skirt
G1 X150.192 Y55.651 E0.07533 ; skirt
G1 X150.585 Y56.306 E0.04568 ; skirt
G1 X150.819 Y56.745 E0.02966 ; skirt
G1 X151.143 Y57.436 E0.04564 ; skirt
G1 X151.331 Y57.897 E0.02971 ; skirt
G1 X151.582 Y58.619 E0.04566 ; skirt
G1 X151.721 Y59.095 E0.02968 ; skirt
G1 X151.986 Y60.328 E0.07532 ; skirt
G1 X152.084 Y61.087 E0.04571 ; skirt
G1 X152.123 Y61.588 E0.03002 ; skirt
G1 X152.144 Y62.536 E0.05670 ; skirt
G1 X152.130 Y62.842 E0.01827 ; skirt
G1 X152.071 Y63.604 E0.04570 ; skirt
G1 X152.008 Y64.097 E0.02965 ; skirt
G1 X151.871 Y64.849 E0.04569 ; skirt
G1 X151.757 Y65.332 E0.02966 ; skirt
G1 X151.543 Y66.067 E0.04571 ; skirt
G1 X151.398 Y66.491 E0.02679 ; skirt
G1 X121.489 Y142.195 E4.86339 ; skirt
G1 X121.196 Y142.877 E0.04433 ; skirt
G1 X120.978 Y143.325 E0.02980 ; skirt
G1 X120.354 Y144.398 E0.07411 ; skirt
G1 X119.626 Y145.402 E0.07411 ; skirt
G1 X119.143 Y145.964 E0.04432 ; skirt
G1 X118.800 Y146.327 E0.02981 ; skirt
G1 X118.262 Y146.838 E0.04433 ; skirt
G1 X117.884 Y147.163 E0.02980 ; skirt
G1 X117.298 Y147.617 E0.04431 ; skirt
G1 X116.889 Y147.903 E0.02982 ; skirt
G1 X115.823 Y148.539 E0.07411 ; skirt
G1 X114.699 Y149.063 E0.07411 ; skirt
G1 X113.528 Y149.471 E0.07411 ; skirt
G1 X112.809 Y149.657 E0.04434 ; skirt
G1 X112.321 Y149.758 E0.02979 ; skirt
G1 X111.588 Y149.870 E0.04434 ; skirt
G1 X111.091 Y149.922 E0.02980 ; skirt
G1 X110.092 Y149.966 E0.05977 ; skirt
G1 X59.852 Y149.960 E3.00178 ; skirt
G1 X58.614 Y149.873 E0.07411 ; skirt
G1 X57.392 Y149.661 E0.07411 ; skirt
G1 X56.198 Y149.327 E0.07411 ; skirt
G1 X55.501 Y149.069 E0.04438 ; skirt
G1 X55.043 Y148.873 E0.02975 ; skirt
G1 X54.377 Y148.546 E0.04434 ; skirt
G1 X53.941 Y148.305 E0.02979 ; skirt
G1 X53.311 Y147.912 E0.04437 ; skirt
G1 X52.901 Y147.628 E0.02977 ; skirt
G1 X52.315 Y147.174 E0.04431 ; skirt
G1 X51.935 Y146.850 E0.02981 ; skirt
G1 X51.053 Y145.978 E0.07411 ; skirt
G1 X50.264 Y145.021 E0.07411 ; skirt
G1 X49.840 Y144.412 E0.04431 ; skirt
G1 X49.576 Y143.989 E0.02981 ; skirt
G1 X49.215 Y143.341 E0.04433 ; skirt
G1 X48.995 Y142.893 E0.02981 ; skirt
G1 X48.528 Y141.744 E0.07410 ; skirt
G1 X48.306 Y141.036 E0.04436 ; skirt
G1 X48.180 Y140.553 E0.02977 ; skirt
G1 X47.955 Y139.334 E0.07411 ; skirt
G1 X47.853 Y138.098 E0.07411 ; skirt
G1 X47.878 Y136.857 E0.07411 ; skirt
G1 X47.953 Y136.119 E0.04436 ; skirt
G1 X48.027 Y135.626 E0.02977 ; skirt
G1 X48.177 Y134.900 E0.04432 ; skirt
G1 X48.301 Y134.416 E0.02982 ; skirt
G1 X48.643 Y133.368 E0.06588 ; skirt
G1 X78.650 Y57.444 E4.87777 ; skirt
G1 X79.207 Y56.313 E0.07532 ; skirt
G1 X79.838 Y55.309 E0.07085 ; skirt
G1 F1800.000 E-4.00000 ; retract
G1 X114.148 Y143.545 F6000.000 ; move to first perimeter point
G1 E4.00000 F1800.000 ; compensate retraction
G1 X113.538 Y143.925 E0.04297 F900.000 ; perimeter
G1 X112.892 Y144.242 E0.04297 ; perimeter
G1 X112.217 Y144.492 E0.04297 ; perimeter
G1 X111.521 Y144.672 E0.04296 ; perimeter
G1 X110.810 Y144.781 E0.04297 ; perimeter
G1 X110.082 Y144.818 E0.04357 ; perimeter
G1 X60.102 Y144.818 E2.98620 ; perimeter
G1 X59.374 Y144.781 E0.04358 ; perimeter
G1 X58.663 Y144.672 E0.04297 ; perimeter
G1 X57.967 Y144.492 E0.04297 ; perimeter
G1 X57.293 Y144.242 E0.04297 ; perimeter
G1 X56.647 Y143.925 E0.04297 ; perimeter
G1 X56.037 Y143.545 E0.04297 ; perimeter
G1 X55.468 Y143.105 E0.04297 ; perimeter
G1 X54.947 Y142.609 E0.04297 ; perimeter
G1 X54.478 Y142.063 E0.04297 ; perimeter
G1 X54.067 Y141.473 E0.04297 ; perimeter
G1 X53.718 Y140.844 E0.04297 ; perimeter
G1 X53.435 Y140.183 E0.04297 ; perimeter
G1 X53.219 Y139.497 E0.04296 ; perimeter
G1 X53.075 Y138.793 E0.04297 ; perimeter
G1 X53.002 Y138.077 E0.04297 ; perimeter
G1 X53.002 Y137.358 E0.04297 ; perimeter
G1 X53.075 Y136.643 E0.04297 ; perimeter
G1 X53.219 Y135.938 E0.04297 ; perimeter
G1 X53.435 Y135.252 E0.04297 ; perimeter
G1 X53.718 Y134.591 E0.04296 ; perimeter
G1 X54.067 Y133.962 E0.04297 ; perimeter
G1 X54.478 Y133.372 E0.04297 ; perimeter
G1 X54.947 Y132.826 E0.04297 ; perimeter
G1 X55.468 Y132.331 E0.04297 ; perimeter
G1 X56.036 Y131.891 E0.04297 ; perimeter
G1 X56.647 Y131.510 E0.04297 ; perimeter
G1 X57.293 Y131.194 E0.04297 ; perimeter
G1 X57.967 Y130.944 E0.04297 ; perimeter
G1 X58.663 Y130.764 E0.04297 ; perimeter
G1 X59.374 Y130.655 E0.04297 ; perimeter
G1 X60.102 Y130.618 E0.04357 ; perimeter
G1 X61.602 Y130.618 E0.08960 ; perimeter
G1 X62.367 Y130.580 E0.04574 ; perimeter
G1 X63.133 Y130.466 E0.04632 ; perimeter
G1 X63.886 Y130.278 E0.04633 ; perimeter
G1 X64.649 Y130.001 E0.04854 ; perimeter
G1 X65.316 Y129.685 E0.04409 ; perimeter
G1 X65.981 Y129.287 E0.04632 ; perimeter
G1 X66.604 Y128.825 E0.04632 ; perimeter
G1 X67.179 Y128.304 E0.04632 ; perimeter
G1 X67.722 Y127.700 E0.04854 ; perimeter
G1 X68.161 Y127.107 E0.04410 ; perimeter
G1 X68.560 Y126.442 E0.04632 ; perimeter
G1 X68.891 Y125.741 E0.04632 ; perimeter
G1 X69.152 Y125.011 E0.04632 ; perimeter
G1 X69.341 Y124.259 E0.04633 ; perimeter
G1 X69.455 Y123.492 E0.04632 ; perimeter
G1 X69.530 Y121.630 E0.11138 ; perimeter
G1 X69.644 Y120.547 E0.06506 ; perimeter
G1 X69.833 Y119.474 E0.06506 ; perimeter
G1 X70.097 Y118.418 E0.06506 ; perimeter
G1 X70.433 Y117.382 E0.06506 ; perimeter
G1 X70.841 Y116.373 E0.06506 ; perimeter
G1 X71.318 Y115.394 E0.06506 ; perimeter
G1 X71.863 Y114.451 E0.06506 ; perimeter
G1 X72.472 Y113.548 E0.06506 ; perimeter
G1 X73.142 Y112.690 E0.06506 ; perimeter
G1 X73.871 Y111.881 E0.06506 ; perimeter
G1 X74.654 Y111.125 E0.06506 ; perimeter
G1 X75.488 Y110.425 E0.06506 ; perimeter
G1 X76.369 Y109.785 E0.06505 ; perimeter
G1 X77.292 Y109.208 E0.06506 ; perimeter
G1 X78.254 Y108.697 E0.06506 ; perimeter
G1 X79.248 Y108.254 E0.06506 ; perimeter
G1 X80.272 Y107.881 E0.06506 ; perimeter
G1 X81.318 Y107.581 E0.06505 ; perimeter
G1 X82.383 Y107.355 E0.06506 ; perimeter
G1 X83.462 Y107.203 E0.06505 ; perimeter
G1 X84.548 Y107.127 E0.06506 ; perimeter
G1 X85.637 Y107.127 E0.06506 ; perimeter
G1 X86.723 Y107.203 E0.06506 ; perimeter
G1 X87.801 Y107.355 E0.06506 ; perimeter
G1 X88.854 Y107.579 E0.06429 ; perimeter
G1 X89.913 Y107.881 E0.06583 ; perimeter
G1 X90.936 Y108.254 E0.06505 ; perimeter
G1 X91.931 Y108.697 E0.06506 ; perimeter
G1 X92.881 Y109.202 E0.06429 ; perimeter
G1 X93.815 Y109.785 E0.06582 ; perimeter
G1 X94.696 Y110.425 E0.06506 ; perimeter
G1 X95.530 Y111.125 E0.06505 ; perimeter
G1 X96.314 Y111.881 E0.06506 ; perimeter
G1 X97.042 Y112.690 E0.06506 ; perimeter
G1 X97.713 Y113.548 E0.06506 ; perimeter
G1 X98.322 Y114.451 E0.06506 ; perimeter
G1 X98.866 Y115.394 E0.06506 ; perimeter
G1 X99.343 Y116.373 E0.06506 ; perimeter
G1 X99.751 Y117.382 E0.06506 ; perimeter
G1 X100.088 Y118.418 E0.06506 ; perimeter
G1 X100.351 Y119.474 E0.06505 ; perimeter
G1 X100.540 Y120.547 E0.06506 ; perimeter
G1 X100.654 Y121.630 E0.06506 ; perimeter
G1 X100.730 Y123.492 E0.11138 ; perimeter
G1 X100.844 Y124.259 E0.04632 ; perimeter
G1 X101.032 Y125.011 E0.04632 ; perimeter
G1 X101.293 Y125.741 E0.04632 ; perimeter
G1 X101.625 Y126.442 E0.04632 ; perimeter
G1 X102.023 Y127.107 E0.04633 ; perimeter
G1 X102.485 Y127.730 E0.04632 ; perimeter
G1 X103.006 Y128.304 E0.04632 ; perimeter
G1 X103.580 Y128.825 E0.04633 ; perimeter
G1 X104.203 Y129.287 E0.04632 ; perimeter
G1 X104.868 Y129.685 E0.04632 ; perimeter
G1 X105.569 Y130.017 E0.04632 ; perimeter
G1 X106.299 Y130.278 E0.04633 ; perimeter
G1 X107.051 Y130.466 E0.04632 ; perimeter
G1 X107.818 Y130.580 E0.04632 ; perimeter
G1 X108.582 Y130.618 E0.04574 ; perimeter
G1 X110.082 Y130.618 E0.08960 ; perimeter
G1 X110.810 Y130.655 E0.04358 ; perimeter
G1 X111.521 Y130.764 E0.04297 ; perimeter
G1 X112.218 Y130.944 E0.04297 ; perimeter
G1 X112.892 Y131.194 E0.04297 ; perimeter
G1 X113.538 Y131.510 E0.04297 ; perimeter
G1 X114.148 Y131.891 E0.04297 ; perimeter
G1 X114.717 Y132.331 E0.04297 ; perimeter
G1 X115.238 Y132.826 E0.04297 ; perimeter
G1 X115.706 Y133.372 E0.04297 ; perimeter
G1 X116.117 Y133.962 E0.04297 ; perimeter
G1 X116.466 Y134.591 E0.04297 ; perimeter
G1 X116.750 Y135.252 E0.04297 ; perimeter
G1 X116.965 Y135.938 E0.04297 ; perimeter
G1 X117.110 Y136.643 E0.04297 ; perimeter
G1 X117.183 Y137.358 E0.04297 ; perimeter
G1 X117.183 Y138.077 E0.04297 ; perimeter
G1 X117.110 Y138.793 E0.04297 ; perimeter
G1 X116.965 Y139.497 E0.04297 ; perimeter
G1 X116.750 Y140.183 E0.04297 ; perimeter
G1 X116.466 Y140.844 E0.04297 ; perimeter
G1 X116.117 Y141.473 E0.04297 ; perimeter
G1 X115.706 Y142.063 E0.04297 ; perimeter
G1 X115.238 Y142.609 E0.04297 ; perimeter
G1 X114.717 Y143.104 E0.04297 ; perimeter
G1 X114.207 Y143.499 E0.03849 ; perimeter
G1 X113.699 Y143.325 F6000.000 ; move inwards before travel
G1 X113.720 Y142.930 F6000.000 ; move to first perimeter point
G1 X113.174 Y143.270 E0.03843 F900.000 ; perimeter
G1 X112.596 Y143.553 E0.03843 ; perimeter
G1 X111.993 Y143.777 E0.03844 ; perimeter
G1 X111.370 Y143.938 E0.03843 ; perimeter
G1 X110.735 Y144.035 E0.03843 ; perimeter
G1 X110.063 Y144.069 E0.04017 ; perimeter
G1 X60.121 Y144.069 E2.98393 ; perimeter
G1 X59.450 Y144.035 E0.04018 ; perimeter
G1 X58.814 Y143.938 E0.03843 ; perimeter
G1 X58.191 Y143.777 E0.03843 ; perimeter
G1 X57.588 Y143.553 E0.03843 ; perimeter
G1 X57.011 Y143.270 E0.03843 ; perimeter
G1 X56.465 Y142.930 E0.03843 ; perimeter
G1 X55.956 Y142.536 E0.03843 ; perimeter
G1 X55.490 Y142.093 E0.03843 ; perimeter
G1 X55.071 Y141.605 E0.03843 ; perimeter
G1 X54.703 Y141.077 E0.03843 ; perimeter
G1 X54.391 Y140.514 E0.03843 ; perimeter
G1 X54.137 Y139.923 E0.03844 ; perimeter
G1 X53.945 Y139.309 E0.03843 ; perimeter
G1 X53.815 Y138.679 E0.03843 ; perimeter
G1 X53.750 Y138.039 E0.03843 ; perimeter
G1 X53.750 Y137.396 E0.03843 ; perimeter
G1 X53.815 Y136.756 E0.03843 ; perimeter
G1 X53.945 Y136.126 E0.03843 ; perimeter
G1 X54.137 Y135.512 E0.03844 ; perimeter
G1 X54.391 Y134.921 E0.03843 ; perimeter
G1 X54.703 Y134.359 E0.03844 ; perimeter
G1 X55.071 Y133.831 E0.03843 ; perimeter
G1 X55.490 Y133.343 E0.03843 ; perimeter
G1 X55.956 Y132.900 E0.03843 ; perimeter
G1 X56.465 Y132.506 E0.03843 ; perimeter
G1 X57.011 Y132.166 E0.03843 ; perimeter
G1 X57.588 Y131.882 E0.03843 ; perimeter
G1 X58.191 Y131.659 E0.03843 ; perimeter
G1 X58.814 Y131.498 E0.03843 ; perimeter
G1 X59.450 Y131.400 E0.03843 ; perimeter
G1 X60.121 Y131.366 E0.04017 ; perimeter
G1 X61.620 Y131.366 E0.08957 ; perimeter
G1 X62.440 Y131.326 E0.04904 ; perimeter
G1 X63.280 Y131.201 E0.05071 ; perimeter
G1 X64.103 Y130.995 E0.05073 ; perimeter
G1 X64.969 Y130.677 E0.05512 ; perimeter
G1 X65.670 Y130.346 E0.04629 ; perimeter
G1 X66.398 Y129.910 E0.05072 ; perimeter
G1 X67.080 Y129.404 E0.05072 ; perimeter
G1 X67.709 Y128.834 E0.05071 ; perimeter
G1 X68.279 Y128.205 E0.05072 ; perimeter
G1 X68.784 Y127.523 E0.05072 ; perimeter
G1 X69.221 Y126.795 E0.05072 ; perimeter
G1 X69.584 Y126.028 E0.05072 ; perimeter
G1 X69.870 Y125.229 E0.05071 ; perimeter
G1 X70.076 Y124.405 E0.05072 ; perimeter
